X: 6
T: Beauty Spot, The
Z: swisspiper
S: https://thesession.org/tunes/1270#setting22656
R: reel
M: 4/4
L: 1/8
K: Dmix
|(3.A.c.A GB {d}A2 dB|{d}cB{d}cG EGGG|(3.A.c.A FB {d}A2dB|{d}cB{d}cG ED (3DDD|
|~A3d d^cAB|{d}cB{d}cG EGGG|~A3d A{d}B{A}Bd|{d}cB{d}cG ED (3DDD||
|{f}ed (3.d.^c.d edcd|ed .d/.^c/.d eeg2|{f}e.d .d/.^c/.d ed=cB|GAcd vedd2|
|{f}ed (3.B.^c.d edcd|ed (3.B.^c.d efge|f{a}ge.d .dcAG|GAcd (3.e.f.e d^c||
